assets/img/dark_mode_blue.svg

<svg xmlns="http://www.w3.org/2000/svg" height="48" width="48" fill="#7178e3"><path d="M24 42q-7.5 0-12.75-5.25T6 24q0-7.5 5.25-12.75T24 6q.4 0 .85.025.45.025 1.15.075-1.8 1.6-2.8 3.95-1 2.35-1 4.95 0 4.5 3.15 7.65Q28.5 25.8 33 25.8q2.6 0 4.95-.925T41.9 22.3q.05.6.075.975Q42 23.65 42 24q0 7.5-5.25 12.75T24 42Zm0-3q5.45 0 9.5-3.375t5.05-7.925q-1.25.55-2.675.825Q34.45 28.8 33 28.8q-5.75 0-9.775-4.025T19.2 15q0-1.2.25-2.575.25-1.375.9-3.125-4.9 1.35-8.125 5.475Q9 18.9 9 24q0 6.25 4.375 10.625T24 39Zm-.2-14.85Z"/></svg>

<svg xmlns="http://www.w3.org/2000/svg" height="48" width="48" fill="#7178e3"><path d="M24 42Q16.5 42 11.25 36.75Q6 31.5 6 24Q6 16.5 11.25 11.25Q16.5 6 24 6Q24.4 6 24.85 6.025Q25.3 6.05 26 6.1Q24.2 7.7 23.2 10.05Q22.2 12.4 22.2 15Q22.2 19.5 25.35 22.65Q28.5 25.8 33 25.8Q35.6 25.8 37.95 24.875Q40.3 23.95 41.9 22.3Q41.95 22.9 41.975 23.275Q42 23.65 42 24Q42 31.5 36.75 36.75Q31.5 42 24 42ZM24 39Q29.45 39 33.5 35.625Q37.55 32.25 38.55 27.7Q37.3 28.25 35.875 28.525Q34.45 28.8 33 28.8Q27.25 28.8 23.225 24.775Q19.2 20.75 19.2 15Q19.2 13.8 19.45 12.425Q19.7 11.05 20.35 9.3Q15.45 10.65 12.225 14.775Q9 18.9 9 24Q9 30.25 13.375 34.625Q17.75 39 24 39ZM23.8 24.15Q23.8 24.15 23.8 24.15Q23.8 24.15 23.8 24.15Q23.8 24.15 23.8 24.15Q23.8 24.15 23.8 24.15Q23.8 24.15 23.8 24.15Q23.8 24.15 23.8 24.15Q23.8 24.15 23.8 24.15Q23.8 24.15 23.8 24.15Q23.8 24.15 23.8 24.15Q23.8 24.15 23.8 24.15Q23.8 24.15 23.8 24.15Q23.8 24.15 23.8 24.15Z"/></svg>
